X:1
T:Title
%%score { ( 1 3 4 ) | ( 2 5 ) }
L:1/8
M:3/4
K:C
V:1 treble nm="Grand Piano"
V:3 treble 
V:4 treble 
V:2 bass 
V:5 bass 
V:1
 z2 z2[Q:1/4=100] [CE]>[DF] | [EG]2 [Ec]2 [CE]>[B,D] | C4 D>E | F2 [DB]2 [FA]>[EG] | %4
 [CE]4 [CE]>[DF] | [EG]2 [Ge]2 [Ec]>[E^G] | A4 (3dcA | G2 c2 [B,D]>[B,E] |[M:2/4] C4 | %9
[M:9/8] z3 .[DB]6 | z3 [=EG]6 | z3[K:bass] [B,D]6 |[M:3/4] z2 z [B,E]3- |[M:3/8] [B,E]3 | G2 c | %15
[M:9/8] e2- [Ge-] [Ge]2 [Fd] [Ec]2 [E^G] | z2 F F3 dcA | [EG]3 z3[K:bass] z3 |[M:3/4] [E,C]6 |] %19
V:2
 z2 z2 [C,G,]>[C,G,] | [C,C]2 [C,G,]2 [G,,G,]>[^G,,F,] | [A,,E,]4 [F,G,B,]>[E,G,C] | %3
 [D,G,B,]2 [G,,G,]2 [G,,G,]>[G,,G,] | [C,G,]4 [C,G,]>[C,G,] | [C,C]2 [C,C]2 [C,G,]>[C,C] | %6
 [F,CF]4 (3:2:2[F,A,F]2 [F,CF] | [G,CE]2 [G,E]2 [G,,F,]>[G,,G,] |[M:2/4] [C,E,]4 | %9
[M:9/8] E2 E [G,,G,]2 G,, z B,G,, | G,,2 G,, C,2 C, C,3 | E2 C G,,2 G,, G,,2 G,, | %12
[M:3/4] A,,2 F, E,2 E, |[M:3/8] E,3 | z3 |[M:9/8] [C,C]2 [C,C] [C,C]2 [C,G,] [C,G,]2 [C,C] | %16
 [F,CF]2 [F,C] [F,C]3[K:treble] F2 F | G,2 G, G,2 G, G,,2 G,, |[M:3/4] C,6 |] %19
V:3
 x6 | x6 | x6 | x6 | x6 | x6 | x6 | x6 |[M:2/4] x4 |[M:9/8] G2 c z2 G, z D[G,CE] | %10
 [G,DF]2 [G,_E^F] G,2 C C3 | G2 E[K:bass] G,2 G, G,2 [F,B,D] |[M:3/4] [E,A,C]2 [A,D] ^G,2 G, | %13
[M:3/8] ^G,3 | x3 |[M:9/8] .G3 z3 z3 | A6 z3 | C2 C [Ec]3[K:bass] [F,B,D]2 [G,B,E] |[M:3/4] x6 |] %19
V:4
 x6 | x6 | x6 | x6 | x6 | x6 | x6 | x6 |[M:2/4] x4 |[M:9/8] z3 z3 .G,3 | x9 | x3[K:bass] x6 | %12
[M:3/4] x6 |[M:3/8] x3 | x3 |[M:9/8] x9 | x9 | x6[K:bass] x3 |[M:3/4] x6 |] %19
V:5
 x6 | x6 | x6 | x6 | x6 | x6 | x6 | x6 |[M:2/4] x4 |[M:9/8] z3 z3 .G,,3 | x9 | x9 |[M:3/4] x6 | %13
[M:3/8] x3 | x3 |[M:9/8] x9 | x6[K:treble] x3 | x9 |[M:3/4] x6 |] %19

